folder-alert-outline.svg

<svg fill="currentColor" viewBox="0 0 24 24"><path d="M15 12h2v5h-2zm0 6h2v2h-2zm1-9c1.07 0 2.09.24 3 .67V8H3v10h6.29A7 7 0 0 1 9 16a7 7 0 0 1 7-7m7 7a7 7 0 0 1-7 7c-2.38 0-4.5-1.19-5.75-3H3a2 2 0 0 1-2-2V6c0-1.11.89-2 2-2h6l2 2h8a2 2 0 0 1 2 2v3.1c1.24 1.26 2 2.99 2 4.9m-7-5a5 5 0 0 0-5 5 5 5 0 0 0 5 5 5 5 0 0 0 5-5 5 5 0 0 0-5-5"/></svg>

<svg  viewBox="0 0 24 24" fill="currentColor"><path  d="M15,12H17V17H15V12M15,18H17V20H15V18M16,9C17.07,9 18.09,9.24 19,9.67V8H3V18H9.29C9.1,17.36 9,16.69 9,16A7,7 0 0,1 16,9M23,16A7,7 0 0,1 16,23C13.62,23 11.5,21.81 10.25,20H3C1.89,20 1,19.1 1,18V6C1,4.89 1.89,4 3,4H9L11,6H19A2,2 0 0,1 21,8V11.1C22.24,12.36 23,14.09 23,16M16,11A5,5 0 0,0 11,16A5,5 0 0,0 16,21A5,5 0 0,0 21,16A5,5 0 0,0 16,11Z"/></svg>
